dist/img/svg/truck.svg

<svg width="24" height="25" viewBox="0 0 24 25" fill="none" xmlns="http://www.w3.org/2000/svg">
<path d="M5.14276 17.5285H4.22847C3.21858 17.5285 2.3999 16.7099 2.3999 15.7V7.47139C2.3999 6.4615 3.21858 5.64282 4.22847 5.64282H12.457C13.4669 5.64282 14.2856 6.4615 14.2856 7.47139V15.7C14.2856 16.7099 13.4669 17.5285 12.457 17.5285H11.5428M15.657 17.5285H15.1999C14.695 17.5285 14.2856 17.1192 14.2856 16.6142V8.84282C14.2856 8.33788 14.695 7.92854 15.1999 7.92854H17.5033C17.7811 7.92854 18.0438 8.05479 18.2173 8.27167L21.3995 12.2495C21.5292 12.4116 21.5999 12.6131 21.5999 12.8207V16.6142C21.5999 17.1192 21.1906 17.5285 20.6856 17.5285M10.6285 17.0714C10.6285 18.3338 9.60512 19.3571 8.34276 19.3571C7.08039 19.3571 6.05704 18.3338 6.05704 17.0714C6.05704 15.809 7.08039 14.7857 8.34276 14.7857C9.60512 14.7857 10.6285 15.809 10.6285 17.0714ZM20.2285 17.0714C20.2285 18.3338 19.2051 19.3571 17.9428 19.3571C16.6804 19.3571 15.657 18.3338 15.657 17.0714C15.657 15.809 16.6804 14.7857 17.9428 14.7857C19.2051 14.7857 20.2285 15.809 20.2285 17.0714Z" stroke="#919191" stroke-linecap="round"/>
</svg>

<svg width="24" height="25" viewBox="0 0 24 25" fill="none" xmlns="http://www.w3.org/2000/svg"><path d="M5.143 17.529h-.915A1.829 1.829 0 012.4 15.7V7.471c0-1.01.819-1.828 1.828-1.828h8.229c1.01 0 1.829.819 1.829 1.828V15.7a1.83 1.83 0 01-1.829 1.829h-.914m4.114 0H15.2a.914.914 0 01-.914-.915V8.843c0-.505.409-.914.914-.914h2.303c.278 0 .54.126.714.343l3.183 3.977c.13.163.2.364.2.572v3.793c0 .505-.41.915-.914.915m-10.057-.458a2.286 2.286 0 11-4.572 0 2.286 2.286 0 014.572 0zm9.6 0a2.286 2.286 0 11-4.572 0 2.286 2.286 0 014.572 0z" stroke="#919191" stroke-linecap="round"/></svg>
